X:93
%%etbk:tnset id:32,pos:3,rep:3x,ant:
%%etbk:wsite http://www.thesession.org/tunes/display/1020
%%etbk:color #ffe6e6
%%etbk:pldat 2016-08-03T16:12,2015-12-31T14:11,2015-12-29T15:57,2015-11-29T14:55,2015-10-13T16:40,2015-06-11T19:29,2015-05-19T17:23,2015-03-06T17:35,2015-01-22T19:43,2015-01-20T18:04,2014-12-26T16:15,2014-12-20T15:11,2014-05-14T17:33,2014-05-09T19:15,2014-04-28T18:50,2014-04-11T19:08,2014-04-09T17:43,2014-03-20T18:51,2014-02-05T16:17,2013-05-15T15:40
T: Palmers Gate
Z: Piano Box Version by Martin Fleischmann
H: Created 2013-02-19 /  Last Modified 2014-12-20
M: 4/4
L: 1/8
R: reel
K: Emin
|:"em"!5!B!1!E !3!(3E!2!E!1!E !3!GABG | "D"!4!AABA !3!G!2!E!1!D!2!E | "G"!1!G3A !3!BAGA| !3!B!5!e!4!d!3!B "D"!2!AAGA |
"em"!3!B!1!E!2!E!1!E !3!GABG | "D"!4!AABA !3!GED!2!E | "G"!1!GA!3!B!4!d !5!ed!3!BA | "em"!1!G!2!EED !2!E4 :|
|:!1!GA | "em"!1!B!3!e!3!ed !3!eeef | !5!ge!4!fd !3!e!2!d!1!B!2!A | "G"!1!G2!3!BG !4!dG!3!BA | !1!GA!3!B!5!e !4!d!3!B!2!A!4!d |
 "em"!1!B!3!eed !3!eeef | !5!ge!4!fd !3!e!2!d!1!B!2!A | "G"!1!GA!3!B!4!d !5!ed!3!BA | "em"!1!G!2!EED !2!E4:|


